svg/fluentui-system-icons/ic_fluent_box_multiple_checkmark_20_regular.svg

<svg width="20" height="20" viewBox="0 0 20 20" fill="none" xmlns="http://www.w3.org/2000/svg">
<path d="M13.5767 2.3777C12.8835 2.11108 12.116 2.11108 11.4228 2.3777L7.96153 3.70896C7.38224 3.93176 7 4.48832 7 5.10898V6.20924C7.332 6.16744 7.668 6.16747 8 6.20931V5.10898C8 4.90209 8.12741 4.71657 8.32051 4.64231L11.7818 3.31104C12.2439 3.1333 12.7556 3.1333 13.2177 3.31104L16.679 4.64231C16.8721 4.71657 16.9995 4.90209 16.9995 5.10898V9.59848C17.3573 9.78132 17.6924 10.0022 17.9995 10.2558V5.10898C17.9995 4.48832 17.6173 3.93176 17.038 3.70896L13.5767 2.3777ZM12.038 8.70896C12.3366 8.82383 12.5829 9.02743 12.7515 9.28279C12.4181 9.39448 12.0991 9.53722 11.7977 9.70757C11.7618 9.68095 11.722 9.65886 11.679 9.64231L8.21771 8.31104C7.75557 8.1333 7.24393 8.1333 6.78179 8.31104L3.32051 9.64231C3.12741 9.71657 3 9.90209 3 10.109V14.8889C3 15.0958 3.12741 15.2813 3.32051 15.3556L6.78179 16.6869C7.24393 16.8646 7.75557 16.8646 8.21771 16.6869L9.29252 16.2735C9.40118 16.5924 9.53832 16.8982 9.70091 17.1878L8.57669 17.6202C7.88348 17.8868 7.11602 17.8868 6.42281 17.6202L2.96153 16.2889C2.38224 16.0661 2 15.5096 2 14.8889V10.109C2 9.48832 2.38224 8.93176 2.96153 8.70896L6.42281 7.3777C7.11602 7.11108 7.88348 7.11108 8.57669 7.3777L12.038 8.70896ZM10.445 10.0062C10.6746 9.91786 10.9292 10.0102 11.0522 10.2136C10.6901 10.5053 10.3658 10.8419 10.0876 11.215L7.99966 12.0181V14.5079C7.99966 14.784 7.7758 15.0079 7.49966 15.0079C7.22351 15.0079 6.99966 14.784 6.99966 14.5079V12.0181L4.19532 10.9395C3.93759 10.8404 3.80901 10.5511 3.90814 10.2933C4.00727 10.0356 4.29657 9.90703 4.5543 10.0062L7.49966 11.139L10.445 10.0062ZM16.0912 5.29317C15.9921 5.03543 15.7028 4.90685 15.445 5.00598L12.6792 6.06978C12.5636 6.11421 12.4357 6.11421 12.3202 6.06978L9.55431 5.00598C9.29658 4.90685 9.00728 5.03543 8.90815 5.29317C8.80902 5.5509 8.9376 5.8402 9.19533 5.93933L11.9612 7.00312C12.3078 7.13643 12.6915 7.13643 13.0381 7.00312L15.804 5.93933C16.0617 5.8402 16.1903 5.5509 16.0912 5.29317ZM19 14.499C19 16.9843 16.9853 18.999 14.5 18.999C12.0147 18.999 10 16.9843 10 14.499C10 12.0137 12.0147 9.99902 14.5 9.99902C16.9853 9.99902 19 12.0137 19 14.499ZM16.8536 12.6455C16.6583 12.4502 16.3417 12.4502 16.1464 12.6455L13.5 15.2919L12.8536 14.6455C12.6583 14.4502 12.3417 14.4502 12.1464 14.6455C11.9512 14.8407 11.9512 15.1573 12.1464 15.3526L13.1464 16.3526C13.3417 16.5478 13.6583 16.5478 13.8536 16.3526L16.8536 13.3526C17.0488 13.1573 17.0488 12.8407 16.8536 12.6455Z" fill="#212121"/>
</svg>

<svg xmlns="http://www.w3.org/2000/svg" width="20" height="20"><path d="M13.577 2.378a3 3 0 0 0-2.154 0L7.962 3.709A1.5 1.5 0 0 0 7 5.109v1.1a4.001 4.001 0 0 1 1 0v-1.1a.5.5 0 0 1 .32-.467l3.462-1.331a2 2 0 0 1 1.436 0l3.461 1.331a.5.5 0 0 1 .32.467v4.49c.358.182.693.403 1 .657V5.109a1.5 1.5 0 0 0-.961-1.4l-3.461-1.331Zm-1.539 6.331a1.5 1.5 0 0 1 .713.574 5.468 5.468 0 0 0-.953.425.502.502 0 0 0-.119-.066L8.218 8.311a2 2 0 0 0-1.436 0L3.32 9.642a.5.5 0 0 0-.32.468v4.78a.5.5 0 0 0 .32.467l3.462 1.33a2 2 0 0 0 1.436 0l1.075-.413c.108.32.245.625.408.915l-1.124.432a3 3 0 0 1-2.154 0L2.962 16.29A1.5 1.5 0 0 1 2 14.89v-4.78a1.5 1.5 0 0 1 .962-1.4l3.46-1.331a3 3 0 0 1 2.155 0l3.461 1.331Zm-1.593 1.297a.5.5 0 0 1 .607.208 5.535 5.535 0 0 0-.964 1.001L8 12.018v2.49a.5.5 0 0 1-1 0v-2.49L4.195 10.94a.5.5 0 1 1 .36-.933L7.5 11.14l2.945-1.133Zm5.646-4.713a.5.5 0 0 0-.646-.287L12.679 6.07a.5.5 0 0 1-.359 0L9.554 5.006a.5.5 0 0 0-.359.933l2.766 1.064a1.5 1.5 0 0 0 1.077 0l2.766-1.064a.5.5 0 0 0 .287-.646ZM19 14.5a4.5 4.5 0 1 1-9 0 4.5 4.5 0 0 1 9 0Zm-2.146-1.854a.5.5 0 0 0-.708 0L13.5 15.293l-.646-.646a.5.5 0 0 0-.708.707l1 1a.5.5 0 0 0 .708 0l3-3a.5.5 0 0 0 0-.707Z"/></svg>
